X:172
T:Trip to Virginia. JJo8.172
B:J.Johnson Choice Collection Vol 8 1758
Z:vmp.Simon Wilson 2013 www.village-music-project.org.uk
M:2/4
L:1/8
Q:1/4=100
K:F
|:f/e/f/g/ fc|{B}A2GF|B/c/d BG|A/B/c AF|f/e/f/g/ fc|{B}A2GF|d/e/f BA|G2C2:|
|:G/F/G/A/ GA|B2cd|cBAG|AFFe|f/e/f/g/ fc|dbag|ag/f/ ce|f2F2:|
